X:0693
T:Miss McNeil's Fancy.
M:2/4
L:1/8
Q:1/4=132
I: :: || ||
Z:Jack Campin * www.campin.me.uk * 2009
K:G
d2 e2|d<BA<G|F<<A A2|F<<A A2|d2 e2|d<BA<G|A>GA>B|G4:|
E>BGB|E>BGB |c2   c2|c4     |D>AFA|DA`FA |B2 B2 |B4||
d2 e2|d<BA<G|F<<A A2|F<<A A2|d2 e2|d<BA<G|A>GA>B|g4|]

